X:1
T:Title
%%score { ( 1 3 ) | ( 2 4 ) }
L:1/8
M:3/4
K:Bb
V:1 treble nm="Grand Piano"
V:3 treble 
V:2 bass 
V:4 bass 
V:1
 z2 z2[Q:1/4=94] [DF]>[DG] | [DB]3 [Dc] [DB][DG] | B2 A2 GF | A3 G FG |[M:2/4] [DF]4 | %5
[M:1/4] [DF]>[DF] |[M:3/4] [D^F]3 [FA] [Ad][Ac] | c2 B2 GG | [=Ec]3 [EG] [EA][EB] |[M:2/4] [Ec]4 | %10
[M:1/4] [Fd]>[=E_d] |[M:3/4] [Fd]4 [Fd]>[=E_d] | [Fd]4 [FB]>[FB] | [Gc] [GB]3 G2 | F4 A>B | %15
 c3 A GF | [DB] [Fd]3 [FB]2 | [=Ec]3 [EG] [EA][EB] | [Ec]4 [B,D][CE] | [DF]3 [DF] [EG][DF] | %20
 [DF] [DB]3 [FB]c | d3 c BG | [B,DF]4 [B,F][B,EF] | [B,EG]3 [GB] [GB][^Fc] | [Fd] [FB]3 [Ge][^Fe] | %25
 d4 z2 | [DB]6 |[Q:1/4=106] [Ec]6 | [Ec]6 | [Fd]4 z2 | [B,DB]6 | c6 | c4 c2 | [Fd]4 [Ec]2 | %34
[M:2/4] [DB]4 |[M:1/4] [DF]2 |[M:3/4] [DB]2 [DB]3 [DB] | c2 B2 G2 | [DF]4 D2 | [DF]4 [DF]2 | %40
 [DB]4 [FB]2 | c4 c2 | d6- |[M:2/4] d4 |[M:1/4] [DF]2 |[M:3/4] [DB]2 [DB]3 [DB] | c2 B2 G2 | %47
 [DF]4 D2 | [DF]4 [DF]2 | [DB]4 [FB]2 | d4 z2 | [DB]6- | [DB]6 |] %53
V:2
 z2 z2 [B,,B,]>[B,,B,] | [B,,F,]3 [B,,F,] [B,,F,][B,,B,] | [F,CE]2 [F,CE]2 [F,B,E][F,A,E] | %3
 [F,CE]3 [F,B,E] [F,A,E][F,A,E] |[M:2/4] [B,,B,]4 |[M:1/4] [B,,B,]>[B,,B,] | %6
[M:3/4] [D,A,]3 [D,D] [^F,D][F,D] | [G,EG]2 [G,DG]2 [G,B,][G,=B,F] | [C,C]3 [C,C] [C,C][C,B,] | %9
[M:2/4] [F,A,]4 |[M:1/4] [B,,B,]>[B,,B,] |[M:3/4] [B,,B,]4 [B,,B,]>[B,,B,] | %12
 [B,,B,]4 [D,B,]>[D,B,] | [E,B,] [E,B,]3 [G,B,E]2 | [B,D]4 [F,CE]>[F,B,E] | %15
 [F,A,E]3 [F,CE] [F,B,E][F,A,E] | [B,,B,] [B,,B,]3 [D,B,]2 | [C,G,]3 [C,C] [C,C][C,B,] | %18
 [F,A,]4 [B,,F,][B,,F,] | [B,,B,]3 [B,,B,] [B,,B,][B,,B,] | [B,,B,] [B,,B,]3 [D,B,][F,A,E] | %21
 [^F,A,D]3 [F,A,D] [G,B,E][E,B,E] | B,,4 D,D, | E,3 [E,E] [E,E][E,E] | [B,D] [B,D]3 [E,B,][E,B,] | %25
 [F,F]4 z2 | [B,,B,]6 | [F,A,]6 | [F,A,]6 | B,2 z2 .G,2 | B,,6 | [F,A,E]6 | [F,A,E]4 [F,A,E]2 | %33
 B,2 z2 z2 |[M:2/4] [B,,B,]4 |[M:1/4] [B,,B,]2 |[M:3/4] [B,,F,]2 [B,,F,]3 [B,,F,] | %37
 [E,G,E]2 [E,G,E]2 [E,B,E]2 | [B,,B,]4 [B,,F,]2 | [B,,B,]4 [B,,B,]2 | [B,,B,]4 [D,B,]2 | %41
 [F,A,E]4 [F,A,E]2 | [B,F]6- |[M:2/4] [B,F]4 |[M:1/4][K:bass] [B,,B,]2 | %45
[M:3/4] [B,,F,]2 [B,,F,]3 [B,,F,] | [E,G,E]2 [E,G,E]2 [E,B,E]2 | [B,,B,]4 [B,,F,]2 | %48
 [B,,B,]4 [B,,B,]2 | [B,,B,]4 [D,B,]2 | [F,F]4 [F,A,E]2 | [B,,B,]6- | [B,,B,]6 |] %53
V:3
 x6 | x6 | x6 | x6 |[M:2/4] x4 |[M:1/4] x2 |[M:3/4] x6 | x6 | x6 |[M:2/4] x4 |[M:1/4] x2 | %11
[M:3/4] x6 | x6 | x6 | x6 | x6 | x6 | x6 | x6 | x6 | x6 | x6 | x6 | x6 | x6 | z2 G,2 c2 | x6 | x6 | %28
 x6 | z2 F,2 [Ec]2 | x6 | x6 | x6 | z2 F,2 z A, |[M:2/4] x4 |[M:1/4] x2 |[M:3/4] x6 | x6 | x6 | %39
 x6 | x6 | x6 | x6 |[M:2/4] x4 |[M:1/4] x2 |[M:3/4] x6 | x6 | x6 | x6 | x6 | z2 G,2 c2 | x6 | x6 |] %53
V:4
 x6 | x6 | x6 | x6 |[M:2/4] x4 |[M:1/4] x2 |[M:3/4] x6 | x6 | x6 |[M:2/4] x4 |[M:1/4] x2 | %11
[M:3/4] x6 | x6 | x6 | x6 | x6 | x6 | x6 | x6 | x6 | x6 | x6 | x6 | x6 | x6 | B,2 z2 [F,A,E]2 | %26
 x6 | x6 | x6 | B,,4 B,,-[B,,A,] | x6 | x6 | x6 | B,,4 .[B,,G,]2 |[M:2/4] x4 |[M:1/4] x2 | %36
[M:3/4] x6 | x6 | x6 | x6 | x6 | x6 | x6 |[M:2/4] x4 |[M:1/4][K:bass] x2 |[M:3/4] x6 | x6 | x6 | %48
 x6 | x6 | B,2 z2 z2 | x6 | x6 |] %53

